X:620
T:Irish Trot. 1652.
C:John Malchair's Third Collection of Tunes
F:https://www.vwml.org/record/Malchair/3619/p62
F:www.vwml.org/topics/historic-dance-and-tune-books/Malchair
Z:Eric Conrad Feb 2020
M:C|    % unbarred
L:1/8
K:Dphr
defe d2A2 [|] Bcde c3c [|] ddcB A2c2 [|] F2G2 A3G [|]
ABcd cAF2 [|] EFGA GE^C2 [|] DEFG A2e2 [|] =cded d4 |]


